X:209
T: Old Langolee
N: O'Farrell's Pocket Companion v.3 (Sky ed. p.105)
N: "Irish"
M: 6/8
R: jig
L: 1/8
Q: 320
K: G
D/E/| G3 B3| AGA BGE| D>EF G2e| d>cB A2 :|
G| Bcd de=f| ece dBG| Bcd de=f| efd Hg3|
GBd gfe| dcB A2G| GDG GDG| GcB A2G|
G3 B3| AGA BGE| DEF G2e| dcB A2 :|
